src/public/img/landing/new/external-websites/roblox.svg

<svg width="127" height="22" viewBox="0 0 127 22" fill="none" xmlns="http://www.w3.org/2000/svg">
<path d="M25.2693 0L20.7764 17.497L38.234 22L42.7269 4.50301L25.2693 0ZM83.2084 1.95936V20.0265H101.235V1.95936H83.2084ZM103.389 1.95936L110.43 10.8836L103.389 20.0265H112.051L114.81 16.4373L117.665 20.0265H126.4L119.141 10.8354L125.964 1.95936H117.302L114.761 5.28206L112.1 1.95936H103.389ZM0.399902 1.95977V20.0269H8.38494V13.3337C10.5384 13.3337 11.5546 15.2249 11.8933 20.0269H20.1684C19.8054 16.5589 18.6198 13.5764 16.6843 11.3695C18.015 10.4479 18.741 9.04091 18.741 7.36775C18.741 4.67571 16.7327 1.95977 12.1837 1.95977H0.399902ZM44.5881 1.95977V20.0269H57.1702C61.3805 20.0269 63.3405 17.8202 63.3405 15.0311C63.3405 13.479 62.7842 12.0968 60.5097 10.8844C62.3244 9.84147 62.8565 8.48313 62.8565 7.00374C62.8565 4.91816 61.6952 1.95977 55.8637 1.95977H44.5881ZM65.7867 1.95977V20.0269H80.7642V15.4923H73.7714V1.95977H65.7867ZM52.5731 5.59748H53.0571C54.6783 5.59748 55.1624 6.3489 55.1624 7.34346C55.1624 8.62853 54.5089 9.11372 52.7667 9.11372H52.5731V5.59748ZM8.38494 5.66996H8.86893C10.369 5.66996 10.756 6.68874 10.756 7.46493C10.756 8.62893 10.0545 9.16231 8.60269 9.16231H8.38494V5.66996ZM30.4857 8.85215L33.8934 9.73081L33.0164 13.1466L29.6086 12.2676L30.4857 8.85215ZM90.4614 9.22912H93.9802V12.7555H90.4614V9.22912ZM52.5731 12.1453H53.1294C54.7991 12.1453 55.3555 12.9938 55.3555 14.1824C55.3555 15.5404 54.6537 16.0498 52.8147 16.0498H52.5731V12.1453Z" fill="black"/>
</svg>

<svg xmlns="http://www.w3.org/2000/svg" width="127" height="22" fill="none">
  <path fill="#000" d="m25.27 0-4.494 17.497L38.234 22l4.493-17.497L25.269 0Zm57.938 1.96v18.066h18.027V1.96H83.208Zm20.181 0 7.041 8.924-7.041 9.142h8.662l2.759-3.589 2.855 3.59h8.735l-7.259-9.192 6.823-8.876h-8.662l-2.541 3.323L112.1 1.96h-8.711Zm-102.99 0v18.067h7.986v-6.693c2.153 0 3.17 1.89 3.508 6.693h8.275c-.363-3.468-1.548-6.45-3.484-8.658 1.331-.921 2.057-2.328 2.057-4.001 0-2.692-2.008-5.408-6.557-5.408H.4Zm44.19 0v18.067H57.17c4.21 0 6.17-2.207 6.17-4.996 0-1.552-.556-2.934-2.83-4.147 1.814-1.043 2.346-2.4 2.346-3.88 0-2.086-1.16-5.044-6.992-5.044H44.588Zm21.198 0v18.067h14.977v-4.535h-6.993V1.96h-7.984ZM52.573 5.597h.484c1.621 0 2.105.752 2.105 1.746 0 1.286-.653 1.77-2.395 1.77h-.194V5.598ZM8.385 5.67h.484c1.5 0 1.887 1.019 1.887 1.795 0 1.164-.701 1.697-2.153 1.697h-.218V5.67Zm22.1 3.182 3.408.879-.877 3.416-3.407-.88.877-3.415Zm59.976.377h3.52v3.527h-3.52V9.229Zm-37.888 2.916h.556c1.67 0 2.227.849 2.227 2.037 0 1.358-.702 1.868-2.541 1.868h-.242v-3.905Z"/>
</svg>
